X:45
T:French Mariners March,The. JJo.045
S:J.Jones MS,1801,N.Shrops.
A:N Shropshire
Z:Neil Brookes 2006
M:4/4
L:1/8
Q:1/2=70
K:C
c>c|g3fe2d2|c2c>cc2G>G|c3ed2e>f|efged2e2|!
f2d>fe2c2|d>cd>e cdef|gfege2d2|c2c>cc2::!
G>G|d3e d>ec>d|e2e>ee2c>d|{f}e2dc{a}g2fe|d2d>dd2ef|!
g2e>gf2d>f|ecged2ef|gfege2d2|c2c>cc2:|

